Newaita-dark/apps/64/mintreport.svg

<svg height="64pt" viewBox="0 0 64 64" width="64pt" xmlns="http://www.w3.org/2000/svg" xmlns:xlink="http://www.w3.org/1999/xlink"><linearGradient id="a" gradientUnits="userSpaceOnUse" x1="31.753043" x2="31.753043" y1="56.067871" y2="58.71395875004"><stop offset="0" stop-opacity=".27451"/><stop offset="1" stop-opacity="0"/></linearGradient><linearGradient id="b"><stop offset="0" stop-opacity=".313725"/><stop offset=".222222" stop-opacity=".27451"/><stop offset="1" stop-opacity="0"/></linearGradient><radialGradient id="c" cx="450.90894" cy="189.57936" gradientTransform="matrix(.00000035 -.156265 -.281277 -.0000002 100.29217 127.190669)" gradientUnits="userSpaceOnUse" r="21.166656" xlink:href="#b"/><radialGradient id="d" cx="450.90894" cy="189.57936" gradientTransform="matrix(-.00000035 .156265 .281277 .0000002 -36.786099 -15.054961)" gradientUnits="userSpaceOnUse" r="21.166656" xlink:href="#b"/><radialGradient id="e" cx="450.90894" cy="189.57936" gradientTransform="matrix(-.00000035 -.156265 .281277 -.0000002 -36.786099 127.190669)" gradientUnits="userSpaceOnUse" r="21.166656" xlink:href="#b"/><radialGradient id="f" cx="450.90894" cy="189.57936" gradientTransform="matrix(.00000035 .156265 -.281277 .0000002 100.292167 -15.054959)" gradientUnits="userSpaceOnUse" r="21.166656" xlink:href="#b"/><linearGradient id="g" gradientTransform="matrix(.150699 0 0 .434824 -11.708026 67.282697)" gradientUnits="userSpaceOnUse" x1="323.51324" x2="323.51324" y1="-141.41458" y2="-25.791676"><stop offset="0" stop-color="#8d6e63"/><stop offset="1" stop-color="#795548"/></linearGradient><linearGradient id="h" gradientUnits="userSpaceOnUse" x1="254" x2="254" y1="212.33333" y2="-115.75"><stop offset="0" stop-color="#e0e0e0"/><stop offset="1" stop-color="#eee"/></linearGradient><linearGradient id="i" gradientUnits="userSpaceOnUse" x1="31.753056" x2="31.753056" y1="56.06789909502" y2="5.79222477969"><stop offset="0" stop-color="#424242"/><stop offset="1" stop-color="#616161"/></linearGradient><path d="m15.875 56.066406h31.753906v2.648438h-31.753906zm0 0" fill="url(#a)"/><path d="m47.628906 56.066406h5.292969v-2.644531h-5.292969zm0 0" fill="url(#c)"/><path d="m15.875 56.066406h-5.289062v2.648438h5.289062zm0 0" fill="url(#d)"/><path d="m15.875 56.066406h-5.289062v-2.644531h5.289062zm0 0" fill="url(#e)"/><path d="m47.628906 56.066406h5.292969v2.648438h-5.292969zm0 0" fill="url(#f)"/><path d="m13.230469 12.40625h37.046875c1.460937 0 2.644531 1.1875 2.644531 2.648438v38.367187c0 1.460937-1.183594 2.644531-2.644531 2.644531h-37.046875c-1.460938 0-2.644531-1.183594-2.644531-2.644531v-38.367187c0-1.460938 1.183593-2.648438 2.644531-2.648438zm0 0" fill="url(#g)"/><path d="m13.230469 12.59375c-1.464844 0-2.644531 1.179688-2.644531 2.644531v.332031c0-1.46875 1.179687-2.648437 2.644531-2.648437h37.046875c1.464844 0 2.644531 1.179687 2.644531 2.648437v-.332031c0-1.464843-1.179687-2.644531-2.644531-2.644531zm0 0" fill="#fff" fill-opacity=".392157"/><path d="m13.230469 55.917969c-1.464844 0-2.644531-1.179688-2.644531-2.644531v-.332032c0 1.464844 1.179687 2.644532 2.644531 2.644532h37.046875c1.464844 0 2.644531-1.179688 2.644531-2.644532v.332032c0 1.464843-1.179687 2.644531-2.644531 2.644531zm0 0" fill-opacity=".196078"/><path d="m105.833643-115.759477h296.346701c11.686384 0 21.15423 9.499093 21.15423 21.185477v306.908192c0 11.686384-9.467846 21.154229-21.15423 21.154229h-296.346701c-11.686384 0-21.154229-9.467845-21.154229-21.154229v-306.908192c0-11.686384 9.467845-21.185477 21.154229-21.185477zm0 0" fill="none" stroke="#212121" stroke-linecap="round" stroke-width="3" transform="matrix(.125012 0 0 .125012 0 26.877566)"/><path d="m126.987873-105.166739h254.006994c5.843192 0 10.592738 4.749547 10.592738 10.592739v296.315453c0 5.843192-4.749546 10.592739-10.592738 10.592739h-254.006994c-5.843192 0-10.561491-4.749547-10.561491-10.592739v-296.315453c0-5.843192 4.718299-10.592739 10.561491-10.592739zm0 0" fill="url(#h)" stroke="#212121" stroke-linecap="round" stroke-linejoin="round" stroke-width="3" transform="matrix(.125012 0 0 .125012 0 26.877566)"/><path d="m23.816406 5.792969c-.734375 0-1.324218.589843-1.324218 1.320312v1.324219h-3.96875c-.734376 0-1.324219.589844-1.324219 1.324219v5.292969c0 .730468.589843 1.320312 1.324219 1.320312h26.460937c.730469 0 1.320313-.589844 1.320313-1.320312v-5.292969c0-.734375-.589844-1.324219-1.320313-1.324219h-3.96875v-1.324219c0-.730469-.589844-1.320312-1.324219-1.320312zm0 0" fill="url(#i)"/><path d="m17.199219 15.054688v1.320312c0 .734375.589843 1.324219 1.324219 1.324219h26.460937c.730469 0 1.320313-.589844 1.320313-1.324219v-1.320312c0 .730468-.589844 1.320312-1.320313 1.320312h-26.460937c-.734376 0-1.324219-.589844-1.324219-1.320312zm0 0" fill-opacity=".235294"/><path d="m23.816406 5.792969c-.734375 0-1.324218.589843-1.324218 1.320312v.5c0-.734375.589843-1.324219 1.324218-1.324219h15.875c.734375 0 1.324219.589844 1.324219 1.324219v-.5c0-.730469-.589844-1.320312-1.324219-1.320312zm-5.292968 2.644531c-.734376 0-1.324219.589844-1.324219 1.324219v.496093c0-.734374.589843-1.324218 1.324219-1.324218h3.96875v-.496094zm22.492187 0v.496094h3.96875c.730469 0 1.320313.589844 1.320313 1.324218v-.496093c0-.734375-.589844-1.324219-1.320313-1.324219zm0 0" fill="#fff" fill-opacity=".313725"/><path d="m720.049358 175.140757c-22.202604 0-40.035547 17.832943-40.035547 39.917449v40.035547h-119.988544c-22.202604 0-40.035547 17.832943-40.035547 40.035548v160.02409c0 22.084506 17.832943 39.917449 40.035547 39.917449h800.002354c22.084506 0 39.917449-17.832943 39.917449-39.917449v-160.02409c0-22.202605-17.832943-40.035548-39.917449-40.035548h-119.988543v-40.035547c0-22.084506-17.832943-39.917449-40.035547-39.917449zm0 0" fill="none" stroke="#212121" stroke-linecap="round" stroke-linejoin="round" stroke-width="11.338583" transform="scale(.0330761)"/><path d="m14.554688 52.097656v.664063c0 .730469.589843 1.320312 1.320312 1.320312h31.753906c.734375 0 1.324219-.589843 1.324219-1.320312v-.664063c0 .734375-.589844 1.324219-1.324219 1.324219h-31.753906c-.730469 0-1.320312-.589844-1.320312-1.324219zm0 0" fill-opacity=".235294"/><g fill="#f44336"><path d="m30.429688 20.34375h2.644531c.734375 0 1.324219.59375 1.324219 1.324219v15.878906c0 .730469-.589844 1.320313-1.324219 1.320313h-2.644531c-.730469 0-1.324219-.589844-1.324219-1.320313v-15.878906c0-.730469.59375-1.324219 1.324219-1.324219zm0 0"/><path d="m30.429688 42.835938h2.644531c.734375 0 1.324219.550781 1.324219 1.226562v2.84375c0 .675781-.589844 1.222656-1.324219 1.222656h-2.644531c-.730469 0-1.324219-.546875-1.324219-1.222656v-2.84375c0-.675781.59375-1.226562 1.324219-1.226562zm0 0"/></g></svg>

<?xml version="1.0" encoding="UTF-8"?>
<svg xmlns="http://www.w3.org/2000/svg" xmlns:xlink="http://www.w3.org/1999/xlink" width="64pt" height="64pt" viewBox="0 0 64 64" version="1.1">
<defs>
<linearGradient id="linear0" gradientUnits="userSpaceOnUse" x1="254" y1="233.5" x2="254" y2="254.66667" gradientTransform="matrix(0.125012,0,0,0.125012,-0.00000500048,26.877569)">
<stop offset="0" style="stop-color:rgb(0%,0%,0%);stop-opacity:0.27451;"/>
<stop offset="1" style="stop-color:rgb(0%,0%,0%);stop-opacity:0;"/>
</linearGradient>
<radialGradient id="radial0" gradientUnits="userSpaceOnUse" cx="450.90894" cy="189.57936" fx="450.90894" fy="189.57936" r="21.166656" gradientTransform="matrix(0.000000348341,-0.156265,-0.281277,-0.000000203077,100.29217,127.190669)">
<stop offset="0" style="stop-color:rgb(0%,0%,0%);stop-opacity:0.313725;"/>
<stop offset="0.222222" style="stop-color:rgb(0%,0%,0%);stop-opacity:0.27451;"/>
<stop offset="1" style="stop-color:rgb(0%,0%,0%);stop-opacity:0;"/>
</radialGradient>
<radialGradient id="radial1" gradientUnits="userSpaceOnUse" cx="450.90894" cy="189.57936" fx="450.90894" fy="189.57936" r="21.166656" gradientTransform="matrix(-0.000000348341,0.156265,0.281277,0.000000203077,-36.786099,-15.054961)">
<stop offset="0" style="stop-color:rgb(0%,0%,0%);stop-opacity:0.313725;"/>
<stop offset="0.222222" style="stop-color:rgb(0%,0%,0%);stop-opacity:0.27451;"/>
<stop offset="1" style="stop-color:rgb(0%,0%,0%);stop-opacity:0;"/>
</radialGradient>
<radialGradient id="radial2" gradientUnits="userSpaceOnUse" cx="450.90894" cy="189.57936" fx="450.90894" fy="189.57936" r="21.166656" gradientTransform="matrix(-0.000000348341,-0.156265,0.281277,-0.000000203077,-36.786099,127.190669)">
<stop offset="0" style="stop-color:rgb(0%,0%,0%);stop-opacity:0.313725;"/>
<stop offset="0.222222" style="stop-color:rgb(0%,0%,0%);stop-opacity:0.27451;"/>
<stop offset="1" style="stop-color:rgb(0%,0%,0%);stop-opacity:0;"/>
</radialGradient>
<radialGradient id="radial3" gradientUnits="userSpaceOnUse" cx="450.90894" cy="189.57936" fx="450.90894" fy="189.57936" r="21.166656" gradientTransform="matrix(0.000000348341,0.156265,-0.281277,0.000000203077,100.292167,-15.054959)">
<stop offset="0" style="stop-color:rgb(0%,0%,0%);stop-opacity:0.313725;"/>
<stop offset="0.222222" style="stop-color:rgb(0%,0%,0%);stop-opacity:0.27451;"/>
<stop offset="1" style="stop-color:rgb(0%,0%,0%);stop-opacity:0;"/>
</radialGradient>
<linearGradient id="linear1" gradientUnits="userSpaceOnUse" x1="323.51324" y1="-141.41458" x2="323.51324" y2="-25.791676" gradientTransform="matrix(0.150699,0,0,0.434824,-11.708026,67.282697)">
<stop offset="0" style="stop-color:rgb(55.294118%,43.137255%,38.823529%);stop-opacity:1;"/>
<stop offset="1" style="stop-color:rgb(47.45098%,33.333333%,28.235294%);stop-opacity:1;"/>
</linearGradient>
<linearGradient id="linear2" gradientUnits="userSpaceOnUse" x1="254" y1="212.33333" x2="254" y2="-115.75" >
<stop offset="0" style="stop-color:rgb(87.843137%,87.843137%,87.843137%);stop-opacity:1;"/>
<stop offset="1" style="stop-color:rgb(93.333333%,93.333333%,93.333333%);stop-opacity:1;"/>
</linearGradient>
<linearGradient id="linear3" gradientUnits="userSpaceOnUse" x1="960" y1="1695.1182" x2="960" y2="175.11813" gradientTransform="matrix(0.0330761,0,0,0.0330761,0,0)">
<stop offset="0" style="stop-color:rgb(25.882353%,25.882353%,25.882353%);stop-opacity:1;"/>
<stop offset="1" style="stop-color:rgb(38.039216%,38.039216%,38.039216%);stop-opacity:1;"/>
</linearGradient>
</defs>
<g id="surface1">
<path style=" stroke:none;fill-rule:nonzero;fill:url(#linear0);" d="M 15.875 56.066406 L 47.628906 56.066406 L 47.628906 58.714844 L 15.875 58.714844 Z M 15.875 56.066406 "/>
<path style=" stroke:none;fill-rule:nonzero;fill:url(#radial0);" d="M 47.628906 56.066406 L 52.921875 56.066406 L 52.921875 53.421875 L 47.628906 53.421875 Z M 47.628906 56.066406 "/>
<path style=" stroke:none;fill-rule:nonzero;fill:url(#radial1);" d="M 15.875 56.066406 L 10.585938 56.066406 L 10.585938 58.714844 L 15.875 58.714844 Z M 15.875 56.066406 "/>
<path style=" stroke:none;fill-rule:nonzero;fill:url(#radial2);" d="M 15.875 56.066406 L 10.585938 56.066406 L 10.585938 53.421875 L 15.875 53.421875 Z M 15.875 56.066406 "/>
<path style=" stroke:none;fill-rule:nonzero;fill:url(#radial3);" d="M 47.628906 56.066406 L 52.921875 56.066406 L 52.921875 58.714844 L 47.628906 58.714844 Z M 47.628906 56.066406 "/>
<path style=" stroke:none;fill-rule:nonzero;fill:url(#linear1);" d="M 13.230469 12.40625 L 50.277344 12.40625 C 51.738281 12.40625 52.921875 13.59375 52.921875 15.054688 L 52.921875 53.421875 C 52.921875 54.882812 51.738281 56.066406 50.277344 56.066406 L 13.230469 56.066406 C 11.769531 56.066406 10.585938 54.882812 10.585938 53.421875 L 10.585938 15.054688 C 10.585938 13.59375 11.769531 12.40625 13.230469 12.40625 Z M 13.230469 12.40625 "/>
<path style=" stroke:none;fill-rule:nonzero;fill:rgb(100%,100%,100%);fill-opacity:0.392157;" d="M 13.230469 12.59375 C 11.765625 12.59375 10.585938 13.773438 10.585938 15.238281 L 10.585938 15.570312 C 10.585938 14.101562 11.765625 12.921875 13.230469 12.921875 L 50.277344 12.921875 C 51.742188 12.921875 52.921875 14.101562 52.921875 15.570312 L 52.921875 15.238281 C 52.921875 13.773438 51.742188 12.59375 50.277344 12.59375 Z M 13.230469 12.59375 "/>
<path style=" stroke:none;fill-rule:nonzero;fill:rgb(0%,0%,0%);fill-opacity:0.196078;" d="M 13.230469 55.917969 C 11.765625 55.917969 10.585938 54.738281 10.585938 53.273438 L 10.585938 52.941406 C 10.585938 54.40625 11.765625 55.585938 13.230469 55.585938 L 50.277344 55.585938 C 51.742188 55.585938 52.921875 54.40625 52.921875 52.941406 L 52.921875 53.273438 C 52.921875 54.738281 51.742188 55.917969 50.277344 55.917969 Z M 13.230469 55.917969 "/>
<path style="fill:none;stroke-width:3;stroke-linecap:round;stroke-linejoin:miter;stroke:rgb(12.941176%,12.941176%,12.941176%);stroke-opacity:1;stroke-miterlimit:4;" d="M 105.833643 -115.759477 L 402.180344 -115.759477 C 413.866728 -115.759477 423.334574 -106.260384 423.334574 -94.574 L 423.334574 212.334192 C 423.334574 224.020576 413.866728 233.488421 402.180344 233.488421 L 105.833643 233.488421 C 94.147259 233.488421 84.679414 224.020576 84.679414 212.334192 L 84.679414 -94.574 C 84.679414 -106.260384 94.147259 -115.759477 105.833643 -115.759477 Z M 105.833643 -115.759477 " transform="matrix(0.125012,0,0,0.125012,0,26.877566)"/>
<path style="fill-rule:nonzero;fill:url(#linear2);stroke-width:3;stroke-linecap:round;stroke-linejoin:round;stroke:rgb(12.941176%,12.941176%,12.941176%);stroke-opacity:1;stroke-miterlimit:4;" d="M 126.987873 -105.166739 L 380.994867 -105.166739 C 386.838059 -105.166739 391.587605 -100.417192 391.587605 -94.574 L 391.587605 201.741453 C 391.587605 207.584645 386.838059 212.334192 380.994867 212.334192 L 126.987873 212.334192 C 121.144681 212.334192 116.426382 207.584645 116.426382 201.741453 L 116.426382 -94.574 C 116.426382 -100.417192 121.144681 -105.166739 126.987873 -105.166739 Z M 126.987873 -105.166739 " transform="matrix(0.125012,0,0,0.125012,0,26.877566)"/>
<path style=" stroke:none;fill-rule:nonzero;fill:url(#linear3);" d="M 23.816406 5.792969 C 23.082031 5.792969 22.492188 6.382812 22.492188 7.113281 L 22.492188 8.4375 L 18.523438 8.4375 C 17.789062 8.4375 17.199219 9.027344 17.199219 9.761719 L 17.199219 15.054688 C 17.199219 15.785156 17.789062 16.375 18.523438 16.375 L 44.984375 16.375 C 45.714844 16.375 46.304688 15.785156 46.304688 15.054688 L 46.304688 9.761719 C 46.304688 9.027344 45.714844 8.4375 44.984375 8.4375 L 41.015625 8.4375 L 41.015625 7.113281 C 41.015625 6.382812 40.425781 5.792969 39.691406 5.792969 Z M 23.816406 5.792969 "/>
<path style=" stroke:none;fill-rule:nonzero;fill:rgb(0%,0%,0%);fill-opacity:0.235294;" d="M 17.199219 15.054688 L 17.199219 16.375 C 17.199219 17.109375 17.789062 17.699219 18.523438 17.699219 L 44.984375 17.699219 C 45.714844 17.699219 46.304688 17.109375 46.304688 16.375 L 46.304688 15.054688 C 46.304688 15.785156 45.714844 16.375 44.984375 16.375 L 18.523438 16.375 C 17.789062 16.375 17.199219 15.785156 17.199219 15.054688 Z M 17.199219 15.054688 "/>
<path style=" stroke:none;fill-rule:nonzero;fill:rgb(100%,100%,100%);fill-opacity:0.313725;" d="M 23.816406 5.792969 C 23.082031 5.792969 22.492188 6.382812 22.492188 7.113281 L 22.492188 7.613281 C 22.492188 6.878906 23.082031 6.289062 23.816406 6.289062 L 39.691406 6.289062 C 40.425781 6.289062 41.015625 6.878906 41.015625 7.613281 L 41.015625 7.113281 C 41.015625 6.382812 40.425781 5.792969 39.691406 5.792969 Z M 18.523438 8.4375 C 17.789062 8.4375 17.199219 9.027344 17.199219 9.761719 L 17.199219 10.257812 C 17.199219 9.523438 17.789062 8.933594 18.523438 8.933594 L 22.492188 8.933594 L 22.492188 8.4375 Z M 41.015625 8.4375 L 41.015625 8.933594 L 44.984375 8.933594 C 45.714844 8.933594 46.304688 9.523438 46.304688 10.257812 L 46.304688 9.761719 C 46.304688 9.027344 45.714844 8.4375 44.984375 8.4375 Z M 41.015625 8.4375 "/>
<path style="fill:none;stroke-width:11.338583;stroke-linecap:round;stroke-linejoin:round;stroke:rgb(12.941176%,12.941176%,12.941176%);stroke-opacity:1;stroke-miterlimit:4;" d="M 720.049358 175.140757 C 697.846754 175.140757 680.013811 192.9737 680.013811 215.058206 L 680.013811 255.093753 L 560.025267 255.093753 C 537.822663 255.093753 519.98972 272.926696 519.98972 295.129301 L 519.98972 455.153391 C 519.98972 477.237897 537.822663 495.07084 560.025267 495.07084 L 1360.027621 495.07084 C 1382.112127 495.07084 1399.94507 477.237897 1399.94507 455.153391 L 1399.94507 295.129301 C 1399.94507 272.926696 1382.112127 255.093753 1360.027621 255.093753 L 1240.039078 255.093753 L 1240.039078 215.058206 C 1240.039078 192.9737 1222.206135 175.140757 1200.003531 175.140757 Z M 720.049358 175.140757 " transform="matrix(0.0330761,0,0,0.0330761,0,0)"/>
<path style=" stroke:none;fill-rule:nonzero;fill:rgb(0%,0%,0%);fill-opacity:0.235294;" d="M 14.554688 52.097656 L 14.554688 52.761719 C 14.554688 53.492188 15.144531 54.082031 15.875 54.082031 L 47.628906 54.082031 C 48.363281 54.082031 48.953125 53.492188 48.953125 52.761719 L 48.953125 52.097656 C 48.953125 52.832031 48.363281 53.421875 47.628906 53.421875 L 15.875 53.421875 C 15.144531 53.421875 14.554688 52.832031 14.554688 52.097656 Z M 14.554688 52.097656 "/>
<path style=" stroke:none;fill-rule:nonzero;fill:rgb(95.686275%,26.27451%,21.176471%);fill-opacity:1;" d="M 30.429688 20.34375 L 33.074219 20.34375 C 33.808594 20.34375 34.398438 20.9375 34.398438 21.667969 L 34.398438 37.546875 C 34.398438 38.277344 33.808594 38.867188 33.074219 38.867188 L 30.429688 38.867188 C 29.699219 38.867188 29.105469 38.277344 29.105469 37.546875 L 29.105469 21.667969 C 29.105469 20.9375 29.699219 20.34375 30.429688 20.34375 Z M 30.429688 20.34375 "/>
<path style=" stroke:none;fill-rule:nonzero;fill:rgb(95.686275%,26.27451%,21.176471%);fill-opacity:1;" d="M 30.429688 42.835938 L 33.074219 42.835938 C 33.808594 42.835938 34.398438 43.386719 34.398438 44.0625 L 34.398438 46.90625 C 34.398438 47.582031 33.808594 48.128906 33.074219 48.128906 L 30.429688 48.128906 C 29.699219 48.128906 29.105469 47.582031 29.105469 46.90625 L 29.105469 44.0625 C 29.105469 43.386719 29.699219 42.835938 30.429688 42.835938 Z M 30.429688 42.835938 "/>
</g>
</svg>
